X: 1
T:Curlew Hills Polka
T: the Glenbeigh Hornpipe
T:McDermott's Barndance
T:Morrison's Polka
M:4/4
L:1/8
Z:Lorna LaVerne <Muse1950@AOL.COM>
R:Hornpipe
N:This is really a barn dance.
N:\`iHornpipe\^i noted above only to get the right lilt.
D:John & James Kelly
Z:Lorna LaVerne
K:G
(3DEF | GABc dg(3fga | g2B2 d3B | ceAB c2cA | BdGA BcBA |
GABc dg(3fga | g2B2 d3B | ceAB cAFG | AGGF G2 (3DEF |
GABc dg(3fga | g2B2 d3B | ceAB c2cA | BdGA BcBA |
GABc dg(3fga | g2B2 d3B | ceAB cAFG | AGGF GA(3Bc=c |
d2b2 c2a2 | Bggf gdBG | FGAB cAFA | GFGA BA(3Bc=c |
d2b2 c2a2 | Bggf gdBG | FGAB cAFG | AGGF GA(3Bc=c |
d2b2 c2a2 | Bggf gdBG | FGAB cAFA | GFGA BA(3Bc=c |
d2b2 c2a2 | Bggf gdBG | FGAB cAFG | AGGF G2 |
